X: 82
T: Aman Ayşem Kunduranı Tek Bas
C: (Anonim)
O: Turkey
F: http://compmusic.upf.edu/node/140
N: rast--turku--oynak--aman_aysem--
N: makam= rast
N: form= turku
N: usul= oynak = 9/8
M: 9/8
L: 1/16
K: C _1/4B ^f  
Q: 1/4=84
%%MIDI tuningsystem comma53
d2g2f4 d4e3d e2f2f2e2 d2^c2d6z2 | \
w:  A man_ Ay şem  kun du ra nı  tek  *  tek  *  bas    | 
d2g2 f4d4 e3de2f2 f2e2d2^c2 d6z2  | 
w:  A man_ Ay şem  kun du ra nı  tek  *  tek  *  bas    | 
B4c4 e4d3B B2A2B2A2 G2F2d6z2 | B4 c4e4 d3cB2A2 B2A2G2F2 G6z2  | 
w:  Tek  tek  bas  kun du ra nı  tek  *  tek  *  bas    |  Tek  tek  bas  kun du ra nı  tek  *  tek  *  bas    | 
B4c4 e4d3B B2A2B2A2 G2F2d6z2 | B4 c4e4 d3cB2A2 B2A2G2F2 G6z2  | 
w:  Tek  tek  bas  kun du ra nı  tek  *  tek  *  bas    |  Tek  tek  bas  kun du ra nı  tek  *  tek  *  bas    | 
d2g2f4 d4e3d e2f2f2e2 d2^c2d6z2 | \
w:  A man_ Ay şem  kun du ra nı  tek  *  tek  *  bas    | 
d2g2 f4d4 e3de2f2 f2e2d2^c2 d6z2  | 
w:  A man_ Ay şem  kun du ra nı  tek  *  tek  *  bas    | 
B4c4 e4d3B B2A2B2A2 G2F2d6z2 | B4 c4e4 d3cB2A2 B2A2G2F2 G6z2  | 
w:  Tek  tek  bas  kun du ra nı  tek  *  tek  *  bas    |  Tek  tek  bas  kun du ra nı  tek  *  tek  *  bas    | 
B4c4 e4d3B B2A2B2A2 G2F2d6z2 | B4 c4e4 d3cB2A2 B2A2G2F2 G6z2  | 
w:  Tek  tek  bas  kun du ra nı  tek  *  tek  *  bas    |  Tek  tek  bas  kun du ra nı  tek  *  tek  *  bas    | 
|


